public/assets/standards/sci-ai/transforming-icon-3.svg

<svg width="36" height="36" viewBox="0 0 36 36" fill="none" xmlns="http://www.w3.org/2000/svg">
<path d="M26.9701 4.60999L1.18005 4.67999V27.37H26.9701V4.60999Z" fill="#A5C352"/>
<path d="M26.9701 1.5H1.18005V4.61H26.9701V1.5Z" fill="#006D68"/>
<path d="M34.82 11.74L9.03003 11.81V34.5H34.82V11.74Z" fill="#006D68"/>
<path d="M34.82 8.63H9.03003V11.74H34.82V8.63Z" fill="white"/>
<path d="M30.86 23.12C30.86 23.12 26.86 28.83 21.92 28.83C16.98 28.83 12.98 23.12 12.98 23.12C12.98 23.12 16.98 17.41 21.92 17.41C26.86 17.41 30.86 23.12 30.86 23.12Z" fill="white"/>
<path d="M21.92 26.2101C23.6542 26.2101 25.06 24.8042 25.06 23.0701C25.06 21.3359 23.6542 19.9301 21.92 19.9301C20.1859 19.9301 18.78 21.3359 18.78 23.0701C18.78 24.8042 20.1859 26.2101 21.92 26.2101Z" fill="#006D68"/>
</svg>

<svg xmlns="http://www.w3.org/2000/svg" width="36" height="36" fill="none" viewBox="0 0 36 36"><path fill="#a5c352" d="m26.97 4.61-25.79.07v22.69h25.79z"/><path fill="#006d68" d="M26.97 1.5H1.18v3.11h25.79zm7.85 10.24-25.79.07V34.5h25.79z"/><path fill="#fff" d="M34.82 8.63H9.03v3.11h25.79zm-3.96 14.49s-4 5.71-8.94 5.71-8.94-5.71-8.94-5.71 4-5.71 8.94-5.71 8.94 5.71 8.94 5.71"/><path fill="#006d68" d="M21.92 26.21a3.14 3.14 0 1 0 0-6.28 3.14 3.14 0 0 0 0 6.28"/></svg>
